X:1
T:Judas Maccabeus
N:Transcribed from musicxml exported from Logic X score editor
L:1/8
M:4/4
I:linebreak $
K:C
d4 B3 c | d4 G4 | ABcd c2 B2 | A8 | Bcde d2 d2 | g4 d4 |$ c2 BA A3 G | F8 | d4 B3 c | 
d4 G4 | ABcd c2 B2 | A8 | Bcde d2 d2 |$ g4 d4 | c2 BA A3 G | G8 | BABc B2 B2 | A2 BA G2 G2 | 
c2 B2 A2 G2 | ^F8 |$ e_ee^f e2 f2 | g4 e4 | ^f2 ed ^c3 d | d8 | d4 B3 c | d4  G4 |$ ABcd c2 B2 | A4 | 
Bcde =d2 d2 | g4 d4 | c2 BA A3 G | G8 | 


